!!!!SEGMENT: Snf0256-Fragment--Herdringen_9820.krn
!!!id: Snf0256
!!!AGN: Motet
!!!SCT: Edwards, Gasch, Tröster (2022)
!!!voices: 4
!!!COM: Ludwig Senfl
!!!OTL: [Fragment] (Herdringen 9820)
**kern	**kern	**kern	**kern
*part4	*part3	*part2	*part1
*staff4	*staff3	*staff2	*staff1
*I"Bassus	*I"Tenor	*I"Altus	*I"Superius
*I'B	*I'T	*I'A	*I'S
*clefF4	*clefGv2	*clefGv2	*clefG2
*	*	*	*
*k[]	*k[]	*k[]	*k[]
*	*	*	*
*M2/1	*M2/1	*M2/1	*M2/1
*met()	*met()	*met()	*met()
0r	2r	1.c	1r
.	1A	.	.
.	.	.	1a
.	2G	2B	.
=1	=1	=1	=1
1.A	2F	2A	1a
.	2E	2G	.
.	1D	2F	1a
2G	.	2E	.
=2	=2	=2	=2
2F	0A	1D	2a
2E	.	.	2g
2D	.	1d	2f
2C	.	.	2e
=3	=3	=3	=3
2BB	1B	2d	0d
2AA	.	2c	.
1GG	1d	2B	.
.	.	2A	.
=4	=4	=4	=4
1GG	2d	1.G	0d
.	2c	.	.
1G	2B	.	.
.	2A	2F	.
=5	=5	=5	=5
2G	1.G	2E	0r
2F	.	2D	.
2E	.	1C	.
2D	2F	.	.
=6	=6	=6	=6
2C	2E	1.c	0r
2BB	2D	.	.
2AA	1C	.	.
2GG	.	2B	.
=7	=7	=7	=7
0FF	1C	2A	0f
.	.	2G	.
.	1c	2F	.
.	.	2E	.
=8	=8	=8	=8
0F	1d	1D	0f
.	2.c	1A	.
.	4d	.	.
=9	=9	=9	=9
2.E	1e	2B	0g
.	.	1c	.
4F	.	.	.
1G	1d	.	.
.	.	2B	.
=10	=10	=10	=10
2.C	2e	1c	0g
.	1c	.	.
4D	.	.	.
1E	.	1G	.
.	2B	.	.
=11	=11	=11	=11
2.AA	1c	1A	0e
4BB	.	.	.
1C	2r	1G	.
.	2c	.	.
=12	=12	=12	=12
2.FF	2.A	1F	1f
4GG	4B	.	.
1AA	1c	1r	1e
=13	=13	=13	=13
2.D	2.F	2r	0d
.	.	2A	.
4E	4G	.	.
1F	1A	2.D	.
.	.	4E	.
=14	=14	=14	=14
2.BB-X	2.D	1F	0d
4C	4E	.	.
1D	4F	2BB-i	.
.	4G	.	.
.	2A	2F	.
=15	=15	=15	=15
2.GG	2B	1G	0d
.	2G	.	.
4AA	.	.	.
1BB-i	2.D	2.F	.
.	4E	4G	.
=16	=16	=16	=16
1FF	4F	1A	0d
.	4G	.	.
.	2A	.	.
1GG	1B	2.D	.
.	.	4E	.
=17	=17	=17	=17
00Dl	00Al	00Fl	00dl
==	==	==	==
*-	*-	*-	*-
!!!system-decoration: [*]
!!!RDF**kern: i = editorial accidental
!!!RDF**kern: l = terminal long
!!!!PTL: <i> New Senfl Edition: Motets for Four Voices (N-V) </i>
!!!PPR: Hollitzer Verlag
!!!PC#: Denkmäler der Tonkunst in Österreich 163.2
!!!PDT: 2022
!!!PED: Scott Lee Edwards, Stefan Gasch, and Sonja Tröster
!!!YEC: Copyright 2022 Denkmäler der Tonkunst in Österreich
!!!YEM: CC-BY-NC 4.0 (https://creativecommons.org/licenses/by-nc/4.0/legalcode)
!!!EED: Benjamin Ory
!!!EEV: 2024/2/24
!!!verovio: header true
!!!header-left: @{PTL}\n@{PED}, eds.\n@{PC#} (@{PDT})&nbsp;\n
!!!header-right:
!!!header-center: